img/tab-icons/Health.svg

<svg width="24" height="24" viewBox="0 0 24 24" fill="none" xmlns="http://www.w3.org/2000/svg">
<path d="M12 21.65C11.69 21.65 11.39 21.61 11.14 21.52C7.32 20.21 1.25 15.56 1.25 8.68998C1.25 5.18998 4.08 2.34998 7.56 2.34998C9.25 2.34998 10.83 3.00998 12 4.18998C13.17 3.00998 14.75 2.34998 16.44 2.34998C19.92 2.34998 22.75 5.19998 22.75 8.68998C22.75 15.57 16.68 20.21 12.86 21.52C12.61 21.61 12.31 21.65 12 21.65ZM7.56 3.84998C4.91 3.84998 2.75 6.01998 2.75 8.68998C2.75 15.52 9.32 19.32 11.63 20.11C11.81 20.17 12.2 20.17 12.38 20.11C14.68 19.32 21.26 15.53 21.26 8.68998C21.26 6.01998 19.1 3.84998 16.45 3.84998C14.93 3.84998 13.52 4.55998 12.61 5.78998C12.33 6.16998 11.69 6.16998 11.41 5.78998C10.48 4.54998 9.08 3.84998 7.56 3.84998Z" fill="#52525A"/>
<path fill-rule="evenodd" clip-rule="evenodd" d="M15.9793 9.56269L16.7661 11.053C16.766 11.0528 16.7662 11.0532 16.7661 11.053C16.9998 11.4976 17.3893 11.8571 17.7964 12.1026C18.2036 12.3482 18.7013 12.5242 19.2 12.5242H21.23C21.6442 12.5242 21.98 12.1884 21.98 11.7742C21.98 11.3599 21.6442 11.0242 21.23 11.0242H19.2C19.0387 11.0242 18.8064 10.9601 18.5711 10.8182C18.3359 10.6763 18.1702 10.5005 18.0939 10.3553L17.0532 8.38402C16.8697 8.03653 16.4866 7.56891 15.8728 7.60146C15.2567 7.63413 14.9264 8.14227 14.782 8.50968C14.7821 8.50961 14.782 8.50976 14.782 8.50968L12.7245 13.7299L11.8174 11.4381L11.8164 11.4356C11.6098 10.9191 11.2179 10.4917 10.7825 10.1962C10.3474 9.90072 9.80575 9.69416 9.25 9.69416L6.2475 9.70417C5.83329 9.70555 5.49862 10.0425 5.5 10.4567C5.50138 10.8709 5.83829 11.2055 6.2525 11.2042L9.25105 11.1942C9.44517 11.1944 9.69804 11.2729 9.93996 11.4372C10.1817 11.6013 10.3496 11.8084 10.4232 11.9917C10.4234 11.992 10.4235 11.9924 10.4236 11.9927L11.5626 14.8702L11.5636 14.8727C11.6506 15.09 11.7706 15.3078 11.9409 15.4828C12.1146 15.6613 12.3805 15.8317 12.725 15.8317C13.0695 15.8317 13.3354 15.6613 13.5091 15.4828C13.6794 15.3078 13.7994 15.09 13.8864 14.8727L15.9793 9.56269Z" fill="#52525A"/>
</svg>

<svg width="24" height="24" fill="none" xmlns="http://www.w3.org/2000/svg"><path d="M12 21.65c-.31 0-.61-.04-.86-.13-3.82-1.31-9.89-5.96-9.89-12.83 0-3.5 2.83-6.34 6.31-6.34 1.69 0 3.27.66 4.44 1.84a6.214 6.214 0 0 1 4.44-1.84c3.48 0 6.31 2.85 6.31 6.34 0 6.88-6.07 11.52-9.89 12.83-.25.09-.55.13-.86.13zM7.56 3.85c-2.65 0-4.81 2.17-4.81 4.84 0 6.83 6.57 10.63 8.88 11.42.18.06.57.06.75 0 2.3-.79 8.88-4.58 8.88-11.42 0-2.67-2.16-4.84-4.81-4.84-1.52 0-2.93.71-3.84 1.94-.28.38-.92.38-1.2 0a4.77 4.77 0 0 0-3.85-1.94z" fill="#52525A"/><path fill-rule="evenodd" clip-rule="evenodd" d="m15.98 9.563.786 1.49c.234.445.623.804 1.03 1.05.408.245.905.421 1.404.421h2.03a.75.75 0 0 0 0-1.5H19.2c-.161 0-.394-.064-.629-.206s-.4-.317-.477-.463l-1.04-1.971c-.184-.347-.567-.815-1.181-.783-.616.033-.947.541-1.091.909l-2.057 5.22-.908-2.292v-.002c-.207-.517-.6-.944-1.034-1.24-.436-.295-.977-.502-1.533-.502l-3.003.01a.75.75 0 0 0 .006 1.5l2.998-.01c.194 0 .447.079.689.243.242.164.41.371.483.555l1.14 2.878v.003c.088.217.208.435.378.61.174.178.44.349.784.349.345 0 .61-.17.784-.35.17-.174.29-.392.377-.61l2.093-5.31z" fill="#52525A"/></svg>
